!!!OTL: Xinshang cishan
!!!ARE: Asia, China,ÿLiaoning, Haicheng
!! III, 289
!!!SCT: C1563
!!!YEM: Copyright 1995, estate of Helmut Schaffrath.
**kern
*ICvox
*Ivox
*M2/4
*k[f#]
*G:
{8e
8b
8a
8f#
=1
8e
16B
16d
4e}
=2
{8e
8b
8a
8f#
=3
8e
16B
16d
4e}
=4
{8g
8e
4g
=5
8r
8dd
8b
8a
=6
16g
16a
16b
16dd
16a
16b
8f#
=7
8e
16B
16d
4e}
=8
{8b
8a
8b
8dd
=9
8ee
8gg
8ee
8dd
=10
8b
8b
8e
8g
=11
4a
4a}
=12
{4ee
4ee
=13
4ee
4ee}
=14
{8g
4e
8dd
=15
8.b
16a
8g
8e
=16
8r
8b
8a
8f#
=17
8a
4e
8d
=18
2e}
=19
{8ee
16b
16ff#
4ee
=20
8b
8ff#
4ee
=21
8b
8b
8e
8g
=22
2a}
=23
{4ee
4ee
=24
4ee
4ee}
=25
{8g
4e
8dd
=26
8.b
16a
8g
8e
=27
8r
8b
8a
8f#
=28
8e
4e
8d
=29
2e}
==
!!!AGN: Xiaodiao
!!!AMT: simple duple
!!!AIN: vox
!!!EED: Helmut Schaffrath
!!!EEV: 1.0
*-
